X:229
L:1/8
Q:1/8=160
M:6/8
K:G
 D | GBG AGE | c2 c B2 d | GBG AGE | EAA AGE | GBG AGE | Bdf gfe | dBG AGE | DGG G2 :| G | 
 Gge dBG | c2 c B2 d | Gge dBG | EAA AGE | Gge dBG | Bdf gfe | dBG AGE | DGG G2 :|

